X:1
T:Nayton, LM
T:Nayton, LM
T:Lowell Mason, 1844
T:Public Domain Courtesy of the Cyber Hymnal™
C:Lowell Mason, 1844
Z:Public Domain
Z:Courtesy of the Cyber Hymnal™
%%score ( 1 2 ) ( 3 4 )
L:1/8
M:3/4
K:Ab
V:1 treble 
V:2 treble 
V:3 bass 
V:4 bass 
V:1
"^Dolce e Legato" [CE]2 E2 [EA]2 | A2 G2 [EA]2 | [FB]2 [EA]2 [EG]2 | [EA]4 [EB]2 | [Ec]4 [EB]2 | %5
 [FA]4 [EG]2 | [CF]2 [B,E]2 [B,=D]2 | [B,E]4 [EB]2 | (B2 A2) [EG]2 | (A2 c2) [Ee]2 | e2 d2 [Ec]2 | %11
 c2 B2 [EB]2 | (c2 A2) E2 | [DF]2 [FA]2 [DF]2 | [CE]2 [EA]2 [DG]2 | [CA]4 |] %16
V:2
 x2 E2 x2 | E4 x2 | x6 | x6 | x6 | x6 | x6 | x6 | E4 x2 | E4 x2 | E4 x2 | E4 x2 | E4 E2 | x6 | x6 | %15
 x4 |] %16
V:3
 [A,,A,]2 [C,A,]2 [A,,A,]2 | [E,A,]3 [D,E,] [C,E,]2 | [D,E,]2 [E,C]2 [E,B,]2 | [A,,C]4 [E,B,]2 | %4
 [E,A,]4 [B,,G,]2 | [C,F,]2 [B,,D,]2 [B,,E,]2 | [A,,A,]2 [B,,G,]2 [B,,F,]2 | [G,,E,]4 [D,E,]2 | %8
 E,4 [B,,E,]2 | E,4 E,2 | E,4 [E,A,]2 | A,2 G,2 [E,G,]2 | (A,2 C2) C,2 | [D,A,]4 [D,A,]2 | %14
 A,2 C2 [B,,E,]2 | [A,,A,]4 |] %16
V:4
 x6 | x6 | x6 | x6 | x6 | x6 | x6 | x6 | (D,2 C,2) x2 | (C,2 A,,2) x2 | C,2 B,,2 x2 | E,4 x2 | %12
 A,4 x2 | x6 | E,4 x2 | x4 |] %16

